X:111
T:Dance With Me Kenny
C:Written by Kenny Baker
N:Transcribed by Vance Henry
R:bluegrass
L:1/8
Q:1/4=232
M:4/4
K:G
z6 B,A, |: "G"G,B, DF G2 Bd | (3"D"cdc AF d2 FE | DF Ad cd cd | "G"BG Bc d2 B,A, | 
G,B, DF G2 Bd | (3"D"cdc AF d4 | d^c =cd BA FA |1 GB AF G2 B,A, :|2 GB AF G2 ef | 
|: "C"ge cA Gc ec | "G"d2 BG DG Bd | (3"D"cdc AF (3EFE DE | "G"GE DG B2 AB | "C"cd eg ag ef | 
"G"ge dc BG Bd | (3"D"cdc Ad fd fa |1 "D"g2 [g2B2] [g2B2] ef :|2 ge dB G4 | 


